!!!SOCIAL_FUNCTION:	love songs
!!!PDT:	1913
!!!OTL: No_158_I_Will_Not_Drink.krn
!!!REG: Great_Lakes
!!!LANG: Non-Tone
!!!LING_GROUP: Algonquin
**kern
*staff1
=1-
*clefG2
*k[f#c#]
*M2/4
4.f#/
8f#/
=2
(4.f#/
16g#/LL)
16a/JJ
=3
4.f#/
(16.f#/LL
32a/JJk)
=4||
*M3/4
8f#/L
8f#/J
8f#/L
8e/J
4B/
=5||
*M2/4
(4f#/
16f#/LL)
16g/
16f#/
16e/JJ
=6
8.d/L
16e/Jk
4d/
=7||
*M3/4
2.B/
=8
8B/L
8B/J
8B/L
8B/J
8B/L
8F#/J
=9||
*M2/4
4.B/
16c#/LL
16d/JJ
=10
4.B/
8A/
*clefF4
=11||
*M3/4
2F#\
8r
8A\
=12
8F#\L
8F#\J
8F#\L
8F#\J
8E/L
8BB/J
=13||
*M2/4
4.F#\
16G\LL
16F#\JJ
=14
2E\
=15
8D/L
[8BB/J
4BB/_
=16
2BB/]
==
*-
